X: 10441
T: Donegal Lass, The
R: jig
M: 6/8
K: Amixolydian
|:Ace age|dcB AGF|GAB G2A|FGA F2d|
Ace age|dcB Ad/e/f|age dcB|1 ~A3 A2E:|2 ~A3 A2F||
|:GAB G2g|fga fed|~e3 ~A3|Ace edB|
GAB G2G|FGA Fd/e/f|age dcB|1 ~A3 A2F:|2 ~A3 A2E||

